X:29
T: Das Schwabentoechterlein
N: Q1073G
O: Mitteleuropa, Deutschland
N: Melodievergleich zu Q0073, D, E und F; anderes Lied "Viertes
N: Geissler - Lied" .
R: geistlich, Geissler - Lied, Brauchtum
M: 4/4
L: 1/8
K: D
d2 | d2d2e2d2 | e2=cBA4 |
d4c2B2 | =c3BA2
c2 | =c2B2c2A2 | G2=F2E2D2 |
F2G2A2B2 | =c3BA4 |
A2G2=F2G2 | =F2E2D2

@@@ Tune index: 1084
